!!!SOCIAL_FUNCTION:	songs of war
!!!PDT:	1918

Specific Region: Dakotas, Minnesota, Montana, Nebraska
!!!REG: Dakotas and Montana
!!!LING_GROUP: Siouan
!!!LANG: Tone
!!!OTL@ENG: Song of the Strong Heart Society (b)
!!!ONM: No. 117
**kern
*Imale
*clefF4
*k[f#c#]
*M2/4
*>[A,B,B]
*>norep[A,B]
*>A
*MM88
8f#
=1
12f#
12f#
12f#
12f#
12e
12d
=2
12f#
12f#
12e
8.e
16f#
=3
12f#
12e
12d
12B
12B
12B
=4
12c#
12B
12B
12B
12B
12B
=5
12c#
12B
12B
12B
[12B
12B]
*>B
=6!|:
12f#
12f#
12e
12e
12e
12f#
=7||
*M3/4
12B
12A
12A
12B
12A
12A
12A
12A
12B
=8
12F#
12F#
12E
8.F#
16E
8.E
16F#
=9||
*M2/4
4E
8BB
16r
16F#
=10
12F#
12F#
12F#
12A
12G
12F#
=11
12F#
12F#
12F#
12F#
12E
12C#
=12
12F#
12F#
12E
8.E
16F#
=13
8F#
8E
8.BB
16BB
=14
2BB
=15
4.BB
==:|!
*-
!!!CNT: Native American -- Sioux
!!!MRD: 1911/07//-1914///
!!!OCL: Frances Densmore
!!!YOR1: Teton Sioux Music, Bulletin 61,
!!!YOR2: Bureau of American Ethnology, Smithsonian Institution
!!!PPR: Government Printing Office
!!!PPP: Washington, D.C.
!!!PDT: 1918///
!!!ENC: Craig Stuart Sapp
!!!END: 2002/03/25/
!!!EEV: 2002/03/31/
!!!AGN: War Song
!!!MPN@@SIO: Chetang'-hota
!!!MPN@ENG: Gray Hawk
!!!TXO: Teton Sioux
!!!MLC: Standing Rock Reservation, South Dakota, United States of America
!!!ARL: 45.9/-100.7#
!!!catalog: Catalogue No. 544
!!!PPG: 323
!!!EFL: 117/245
!!!VTS: 2982924665
